!!!COM: Aaron Copland
!!!OTL: [T707_Cop-w10p48m6-1h36]
**kern	**dynam	**kern	**dynam	**kern	**dynam	**kern	**dynam	**kern	**dynam	**kern	**dynam	**kern	**dynam	**kern	**dynam	**kern	**dynam
*grp:A	*	*grp:A	*	*grp:A	*	*grp:A	*	*grp:A	*	*grp:B	*	*grp:B	*	*grp:B	*	*	*
*part9	*part9	*part8	*	*part7	*	*part6	*	*part5	*part5	*part4	*	*part3	*	*part2	*part2	*part1	*
*staff9	*	*staff8	*	*staff7	*	*staff6	*	*staff5	*	*staff4	*	*staff3	*	*staff2	*	*staff1	*
*I"Contrabass	*	*I"Violoncello	*	*I"Viola	*	*I"Violin II	*	*I"Violin I	*	*I"Trumpet II in C	*	*I"Trumpet I in C	*	*I"Horn III.IV. in F	*	*I"Horn I.II. in F	*
*I'Cb.	*	*I'Vc.	*	*I'Vla.	*	*I'Vln. II	*	*I'Vln. I	*	*I'C Tpt. II.	*	*I'C Tpt. I.	*	*I'Hn. III. IV.	*	*I'Hn. I. II.	*
*clefF4	*	*clefF4	*	*clefC3	*	*clefG2	*	*clefG2	*	*clefG2	*	*clefG2	*	*clefG2	*	*clefG2	*
*ITrd7c12	*	*	*	*	*	*	*	*	*	*	*	*	*	*ITrd4c7	*	*ITrd4c7	*
*k[]	*	*k[]	*	*k[]	*	*k[]	*	*k[]	*	*k[]	*	*k[]	*	*k[b-]	*	*k[b-]	*
*	*	*	*	*	*	*	*	*	*	*	*	*	*	*	*	*	*
*M7/8	*	*M7/8	*	*M7/8	*	*M7/8	*	*M7/8	*	*M7/8	*	*M7/8	*	*M7/8	*	*M7/8	*
*Xtuplet	*	*Xtuplet	*	*Xtuplet	*	*Xtuplet	*	*Xtuplet	*	*Xtuplet	*	*Xtuplet	*	*Xtuplet	*	*Xtuplet	*
=1	=1	=1	=1	=1	=1	=1	=1	=1	=1	=1	=1	=1	=1	=1	=1	=1	=1
*	*	*	*	*	*	*	*	*	*	*	*	*	*	*	*	*^	*
!	!	!	!	!	!	!	!	!	!	!	!	!	!	!	!	!LO:TX:t=[[quarter]=144]	!	!
!	!	!	!	!	!	!	!	!	!	!	!	!LO:TX:a:t=con sord.	!	!	!	!	!	!
!	!	!	!	!	!	!	!	!	!	!	!	!	!	!	!	!LO:TX:a:t=[Solo con sord.]	!	!LO:DY:ed=brack
!	!	!	!LO:DY:t=%s marc.	!	!	!	!	!	!	!	!	!	!LO:DY:t=%s marc.	!	!	!	!	!LO:DY:t=%s marc.
4r	.	8FF#XL	f	4r	.	4r	.	4r	.	8%7r	.	16e^LL	mf	8%7r	.	8e^L	8e^	f
.	.	.	.	.	.	.	.	.	.	.	.	16e	.	.	.	.	.	.
.	.	8GG#XJ	.	.	.	.	.	.	.	.	.	16e	.	.	.	8eJ	8r	.
.	.	.	.	.	.	.	.	.	.	.	.	[16eJJ	.	.	.	.	.	.
!	!	!	!	!	!	!LO:TX:a:t=arco	!	!	!	!	!	!	!	!	!	!	!	!
!	!	!	!	!	!	!	!	!	!	!	!	!	!	!	!	!	!	!
=:	=:	=:	=:	=:	=:	=:	=:	=:	=:	=:	=:	=:	=:	=:	=:	=:	=:	=:
!	!	!	!	!	!	!	!LO:DY:t=%s marc.	!	!	!	!	!	!	!	!	!	!	!
4r	.	8AAL	.	4r	.	8d#X^L	f	4r	.	.	.	4.e]	.	.	.	4.e	4r	.
.	.	8BB	.	.	.	8c#X	.	.	.	.	.	.	.	.	.	.	.	.
8r	.	8C#XJ	.	8r	.	8BJ	.	8r	.	.	.	.	.	.	.	.	8r	.
!	!	!	!	!	!	!	!	!	!	!	!	!	!	!	!	!	!	!
=:	=:	=:	=:	=:	=:	=:	=:	=:	=:	=:	=:	=:	=:	=:	=:	=:	=:	=:
4r	.	4D#X^	.	4E^	f	4r	.	4r	.	.	.	4r	.	.	.	8f#X^L	8f#^	.
.	.	.	.	.	.	.	.	.	.	.	.	.	.	.	.	8f#J	8r	.
=2	=2	=2	=2	=2	=2	=2	=2	=2	=2	=2	=2	=2	=2	=2	=2	=2	=2	=2
4r	.	8F#XL	.	8F#XL	.	4r	.	4r	.	8%7r	.	16f#X^LL	.	8%7r	.	8f#X^L	8f#^	.
.	.	.	.	.	.	.	.	.	.	.	.	16f#	.	.	.	.	.	.
.	.	8EJ	.	8G#XJ	.	.	.	.	.	.	.	16f#	.	.	.	8f#J	8r	.
.	.	.	.	.	.	.	.	.	.	.	.	[16f#JJ	.	.	.	.	.	.
=:	=:	=:	=:	=:	=:	=:	=:	=:	=:	=:	=:	=:	=:	=:	=:	=:	=:	=:
4r	.	8D#XL	.	8AL	.	4r	.	4r	.	.	.	4.f#]	.	.	.	4.f#	4r	.
.	.	8C#X	.	8B	.	.	.	.	.	.	.	.	.	.	.	.	.	.
8r	.	8BBJ	.	8c#XJ	.	8r	.	8r	.	.	.	.	.	.	.	.	8r	.
!LO:TX:a:t=(pizz.)	!	!	!	!	!	!	!	!	!	!	!	!	!	!	!	!	!	!
=:	=:	=:	=:	=:	=:	=:	=:	=:	=:	=:	=:	=:	=:	=:	=:	=:	=:	=:
4EE^	f	4EE^	.	4d#X^	.	4d#X^	.	4r	.	.	.	4r	.	.	.	8a^L	8a^	.
.	.	.	.	.	.	.	.	.	.	.	.	.	.	.	.	8aJ	8r	.
=3	=3	=3	=3	=3	=3	=3	=3	=3	=3	=3	=3	=3	=3	=3	=3	=3	=3	=3
4r	.	8FF#XL	.	4r	.	8f#XL	.	4r	.	4r	.	8%7r	.	8%7r	.	8a^L	8a^	.
.	.	8GG#XJ	.	.	.	8eJ	.	.	.	.	.	.	.	.	.	8aJ	8r	.
!	!	!	!	!	!	!	!	!	!	!	!	!	!	!	!	!	!	!
!	!	!	!	!	!	!	!	!	!	!LO:TX:a:t=con sord.	!	!	!	!	!	!	!	!
=:	=:	=:	=:	=:	=:	=:	=:	=:	=:	=:	=:	=:	=:	=:	=:	=:	=:	=:
!	!	!	!	!	!	!	!	!	!	!	!LO:DY:t=%s marc.	!	!	!	!	!	!	!
4r	.	8AAL	.	4r	.	8d#XL	.	4r	.	16a^LL	mf	.	.	.	.	4.a	4r	.
.	.	.	.	.	.	.	.	.	.	16a	.	.	.	.	.	.	.	.
.	.	8BB	.	.	.	8c#X	.	.	.	16a	.	.	.	.	.	.	.	.
.	.	.	.	.	.	.	.	.	.	[16aJ	.	.	.	.	.	.	.	.
8r	.	8C#XJ	.	8r	.	8BJ	.	8r	.	8aJ_	.	.	.	.	.	.	8r	.
=:	=:	=:	=:	=:	=:	=:	=:	=:	=:	=:	=:	=:	=:	=:	=:	=:	=:	=:
4r	.	4D#X^	.	4E^	.	4r	.	4r	.	4a]	.	.	.	.	.	8g#X^L	8g#^	.
.	.	.	.	.	.	.	.	.	.	.	.	.	.	.	.	8g#J	8r	.
=4	=4	=4	=4	=4	=4	=4	=4	=4	=4	=4	=4	=4	=4	=4	=4	=4	=4	=4
4r	.	8F#XL	.	8F#XL	.	4r	.	8%7r	.	4r	.	8%7r	.	8%7r	.	8g#X^L	8g#^	.
.	.	8EJ	.	8G#XJ	.	.	.	.	.	.	.	.	.	.	.	8g#J	8r	.
=:	=:	=:	=:	=:	=:	=:	=:	=:	=:	=:	=:	=:	=:	=:	=:	=:	=:	=:
4r	.	8D#XL	.	8AL	.	4r	.	.	.	8r	.	.	.	.	.	4.g#	4r	.
.	.	8C#X	.	8B	.	.	.	.	.	16g#X^LL	.	.	.	.	.	.	.	.
.	.	.	.	.	.	.	.	.	.	16g#	.	.	.	.	.	.	.	.
8r	.	8BBJ	.	8c#XJ	.	8r	.	.	.	16g#	.	.	.	.	.	.	8r	.
.	.	.	.	.	.	.	.	.	.	[16g#JJ	.	.	.	.	.	.	.	.
=:	=:	=:	=:	=:	=:	=:	=:	=:	=:	=:	=:	=:	=:	=:	=:	=:	=:	=:
4EE^	.	4EE^	.	4d#X^	.	4d#X^	.	.	.	4g#]	.	.	.	.	.	8e^L	8e^	.
.	.	.	.	.	.	.	.	.	.	.	.	.	.	.	.	8eJ	8r	.
=5	=5	=5	=5	=5	=5	=5	=5	=5	=5	=5	=5	=5	=5	=5	=5	=5	=5	=5
4r	.	8FF#XL	.	4r	.	8f#XL	.	8%7r	.	8%7r	.	8r	.	8%7r	.	8e^L	8e^	.
.	.	8GG#XJ	.	.	.	8eJ	.	.	.	.	.	16e^LL	.	.	.	8eJ	8r	.
.	.	.	.	.	.	.	.	.	.	.	.	16e	.	.	.	.	.	.
=:	=:	=:	=:	=:	=:	=:	=:	=:	=:	=:	=:	=:	=:	=:	=:	=:	=:	=:
4r	.	8AAL	.	4r	.	8d#XL	.	.	.	.	.	16e	.	.	.	4.e	4r	.
.	.	.	.	.	.	.	.	.	.	.	.	[16eJJ	.	.	.	.	.	.
.	.	8BB	.	.	.	8c#X	.	.	.	.	.	4e]	.	.	.	.	.	.
8r	.	8C#XJ	.	8r	.	8BJ	.	.	.	.	.	.	.	.	.	.	8r	.
=:	=:	=:	=:	=:	=:	=:	=:	=:	=:	=:	=:	=:	=:	=:	=:	=:	=:	=:
4r	.	4D#X^	.	4E^	.	4r	.	.	.	.	.	4r	.	.	.	8f#X^L	8f#^	.
.	.	.	.	.	.	.	.	.	.	.	.	.	.	.	.	8f#J	8r	.
=6	=6	=6	=6	=6	=6	=6	=6	=6	=6	=6	=6	=6	=6	=6	=6	=6	=6	=6
4r	.	8F#XL	.	8F#XL	.	4r	.	4r	.	8%7r	.	16f#X^LL	.	4r	.	8f#X^L	8f#^	.
.	.	.	.	.	.	.	.	.	.	.	.	16f#	.	.	.	.	.	.
.	.	8EJ	.	8G#XJ	.	.	.	.	.	.	.	16f#	.	.	.	8f#J	8r	.
.	.	.	.	.	.	.	.	.	.	.	.	[16f#JJ	.	.	.	.	.	.
=:	=:	=:	=:	=:	=:	=:	=:	=:	=:	=:	=:	=:	=:	=:	=:	=:	=:	=:
4r	.	8D#XL	.	8A	.	4r	.	8A^L	f	.	.	4f#]	.	4r	.	4.f#	4r	.
.	.	8C#X	.	8r	.	.	.	8B	.	.	.	.	.	.	.	.	.	.
8r	.	8BBJ	.	8r	.	8r	.	8c#XJ	.	.	.	8r	.	8r	.	.	8r	.
*	*	*	*	*	*	*	*	*	*	*	*	*	*	*^	*	*v	*v	*
!	!	!	!	!	!	!	!	!	!	!	!	!	!	!LO:TX:a:t=con sord.	!	!	!	!
=:	=:	=:	=:	=:	=:	=:	=:	=:	=:	=:	=:	=:	=:	=:	=:	=:	=:	=:
4EE^	.	4EE^	.	[4f#X^	.	4r	.	[4d#X^	.	.	.	4r	.	8f#X^L	8f#^	f	4r	.
.	.	.	.	.	.	.	.	.	.	.	.	.	.	8f#J	8r	.	.	.
*	*	*	*	*	*	*	*	*	*	*	*	*	*	*v	*v	*	*	*
=	=	=	=	=	=	=	=	=	=	=	=	=	=	=	=	=	=
*-	*-	*-	*-	*-	*-	*-	*-	*-	*-	*-	*-	*-	*-	*-	*-	*-	*-
!!!system-decoration: [(s1,s2,s3,s4)][(s5,s6,s7,s8,s9)]
